images/icon-twitter.svg

<?xml version="1.0" encoding="UTF-8"?><!DOCTYPE svg PUBLIC "-//W3C//DTD SVG 1.1//EN" "http://www.w3.org/Graphics/SVG/1.1/DTD/svg11.dtd"><svg xmlns="http://www.w3.org/2000/svg" xmlns:xlink="http://www.w3.org/1999/xlink" version="1.1" width="24" height="24" viewBox="0 0 24 24"><path d="M17.71,9.33C17.64,13.95 14.69,17.11 10.28,17.31C8.46,17.39 7.15,16.81 6,16.08C7.34,16.29 9,15.76 9.9,15C8.58,14.86 7.81,14.19 7.44,13.12C7.82,13.18 8.22,13.16 8.58,13.09C7.39,12.69 6.54,11.95 6.5,10.41C6.83,10.57 7.18,10.71 7.64,10.74C6.75,10.23 6.1,8.38 6.85,7.16C8.17,8.61 9.76,9.79 12.37,9.95C11.71,7.15 15.42,5.63 16.97,7.5C17.63,7.38 18.16,7.14 18.68,6.86C18.47,7.5 18.06,7.97 17.56,8.33C18.1,8.26 18.59,8.13 19,7.92C18.75,8.45 18.19,8.93 17.71,9.33M20,2H4A2,2 0 0,0 2,4V20A2,2 0 0,0 4,22H20A2,2 0 0,0 22,20V4C22,2.89 21.1,2 20,2Z" /></svg>

<svg xmlns="http://www.w3.org/2000/svg" viewBox="0 0 24 24"><path d="M20 2H4c-1.1 0-2 .9-2 2v16c0 1.1.9 2 2 2h16c1.1 0 2-.9 2-2V4c0-1.1-.9-2-2-2zm-2.3 7.3c-.1 4.6-3 7.8-7.4 8-1.8.1-3.1-.5-4.3-1.2 1.3.2 3-.3 3.9-1.1-1.3-.1-2.1-.8-2.5-1.9.4.1.8 0 1.1 0-1.2-.4-2-1.1-2.1-2.7.3.2.7.3 1.1.3-.9-.5-1.5-2.4-.8-3.6C8 8.6 9.6 9.7 12.2 9.9c-.7-2.8 3-4.3 4.6-2.5.7-.1 1.2-.4 1.7-.6-.2.6-.6 1.1-1.1 1.5.5-.1 1-.2 1.4-.4 0 .6-.6 1-1.1 1.4z"/></svg>
